!!!!SEGMENT: pl-wtm--r-1473_stefani-jozef--spiew-o-kosciolku.krn
!!!cenid: 18xx:2220
!!!COM: Stefani, Józef
!!!COM-rismID: pe30024097
!!!CDT: 1800/04/16-1876/03/19
!!!CNT: Polish
!!!OTL: Śpiew o Kościółku
!!!PDT:
!!!AGN:
!!!SMS-siglum: PL-Wtm
!!!SMS-shelfmark: R 1473
!!!SMS-shelfwork: W
!!!SMS-variant:
!!!SMS-altvar:
!!!NIFC-rismSourceID: 1001121156
!!!NIFC-islandoraID:
!!!URL-pdf-islandora:
!!!URL-scan:
!!!ONB-nifc: UWAGA: w zbiorze 1. Dziewczyna w Dąbrowie, 2. Śpiew o Kościółku
!!!OMD: Allegro.
!!!AIN: 1 empty 1 vox
!!!key:
**kern	**kern	**dynam	**kern	**text
*part2	*part2	*part2	*part1	*part1
*staff3	*staff2	*	*staff1	*staff1
*Iempty	*Iforte	*	*Ivox	*
*	*I"Fortepian	*	*I"Spiew	*
*clefF4	*clefG2	*	*clefG2	*
*k[b-]	*k[b-]	*	*k[b-]	*
*F:	*F:	*	*F:	*
*M2/4	*M2/4	*	*M2/4	*
*all\right	*all\right	*	*all\right	*
=1	=1	=1	=1	=1
*^	*	*	*	*
*	*2\right	*	*	*	*
!	!	!	!	!LO:TX:t=P:znaki:problem= ff# poprawiony na b-	!
!	!	!	!	!LO:TX:a:i:t=Śpiew o Kościołku Stej Salomei\nw Grodzisku pod Ojcowem.\nWiersz N.N. muzyka JStefaniego.	!
4r	2C#X\	8r	fp	2r	.
.	.	(8b-^>/L	.	.	.
4A 4G 4E/	.	8a/J)	.	.	.
.	.	16.ee\LL	.	.	.
.	.	32gg\JJk	.	.	.
*v	*v	*	*	*	*
=2	=2	=2	=2	=2
4A 4F 4D\	4gg\	.	2r	.
.	(16qqeee/LL	.	.	.
.	16qqddd/	.	.	.
.	16qqccc#X/JJ	.	.	.
4r	4ddd\)	.	.	.
=3	=3	=3	=3	=3
*^	*	*	*	*
4r	2BBn\	8r	.	2r	.
!	!	!	!LO:DY:rj	!	!
.	.	(8a-X^>/L	fp	.	.
4G 4F 4D/	.	8g/J)	.	.	.
.	.	16.dd\LL	.	.	.
.	.	32ff\JJk	.	.	.
*v	*v	*	*	*	*
=4	=4	=4	=4	=4
!	!	!LO:DY:rj:t=for.	!	!
8C\L	(8ee\L	f	2r	.
8E\J	8cc\J)	.	.	.
8F\L	8a\L	.	.	.
8D\J	8ddJ 8f\	.	.	.
=5	=5	=5	=5	=5
*	*^	*	*	*
[4G\	8g/	4e\	.	2r	.
.	4cc/	.	.	.	.
4G] 4GG\	.	4f 4d\	.	.	.
.	8bn/	.	.	.	.
*	*v	*v	*	*	*
!!LO:LB:g=original
=6	=6	=6	=6	=6
8G 8C\	8cc 8e/	.	2r	.
8r	8r	.	.	.
(8B-L 8G\	(16b-X\LL	.	.	.
.	16cc\	.	.	.
8C\J)	16ee\	.	.	.
.	16gg\JJ)	.	.	.
=7	=7	=7	=7	=7
(8AL 8F\	(16a\LL	.	2r	.
.	16cc\	.	.	.
8C\J)	16ee\	.	.	.
.	16ff\JJ)	.	.	.
(8GL 8E\	(16g/LL	.	.	.
.	16b-/	.	.	.
8C\J)	16cc/	.	.	.
.	16ee/JJ)	.	.	.
=8	=8	=8	=8	=8
2r	2r	.	2r	.
=9||	=9||	=9||	=9||	=9||
!	!	!LO:DY:rj	!	!
8F 8FF/	4r	p	4a/	I-
8r	.	.	.	.
4r	8a 8f 8c/	.	8.bn^\	-na-
.	8r	.	.	.
.	.	.	16cc\	-czej
=10	=10	=10	=10	=10
8E 8EE/	4r	.	(8.g/L	go-
8r	.	.	.	.
.	.	.	16cc/Jk)	.
4r	8cc 8g 8c/	.	4cc/	-łąb
.	8r	.	.	.
=11	=11	=11	=11	=11
4B- 4BB-\	8r	.	4dd\	ran-
.	(8ddL 8b-\	.	.	.
8.F\L	8.cc 8.a\)	.	8.cc\	-ny
16G\Jk	16b-Jk 16g|\	.	16b-\	od
!!LO:LB:g=original
=12	=12	=12	=12	=12
4F\	8r	.	4cc\	strza-
.	(8ccL 8a/	.	.	.
8FF/	8aJ 8f/)	.	8a/	-ły,
8r	8r	.	8r	.
=13	=13	=13	=13	=13
8C 8CC/	4r	.	(8.b-/L	Z czer-
8rBB	.	.	.	.
.	.	.	32cc/LL	.
.	.	.	32b-/JJJ)	.
4rBB	8e 8c 8B-< 8G</	.	8.a/	-wo-
.	8r	.	.	.
.	.	.	16g/	-nym
=14	=14	=14	=14	=14
8F 8FF/	4r	.	8a/L	da-
8r	.	.	8cc/J	.
4rBB	8f 8c 8A</	.	8f/	-chem
.	8r	.	8r	.
=15	=15	=15	=15	=15
8C 8CC/	8r	.	4g/	Ko-
8rFF	8e 8c 8G</	.	.	.
8C 8CC/	8r	.	8.f#X/	-ścio-
8rFF	8d#X 8c 8A< 8F#X<^>/	.	.	.
.	.	.	16a/	-łek
=16	=16	=16	=16	=16
8C 8CC/	8r	.	4g/	bia-
8rFF	8e 8c 8G</	.	.	.
8C 8CC/	8r	.	8g/	-ły
8rFF	8e 8c 8G</	.	8r	.
!!LO:LB:g=original
=17	=17	=17	=17	=17
*^	*	*	*	*
!	!LO:N:vis=2	!	!	!	!
2C/	8C\L	4g 4e/	.	4g/	Bia-
.	(>8E\	.	.	.	.
.	8G\	8.gL 8.e/	.	8.g/	-łem
.	8c\J)	.	.	.	.
.	.	16ccJk 16e/	.	16cc\	tam
=18	=18	=18	=18	=18	=18
*	*	*^	*	*	*
!	!LO:N:vis=2	!	!	!	!	!
2D/	8D\L	4cc/	4.f\	.	4cc\	pie-
.	(>8F\	.	.	.	.	.
.	8G\	8bn/	.	.	8bn\	-rzem
.	8Bn\J)	8r	8rc	.	8r	.
*	*	*v	*v	*	*	*
=19	=19	=19	=19	=19	=19
!	!LO:N:vis=2	!	!	!	!
2BBn/	8BBn\L	4g 4f/	.	4g/	padł
.	(>8D\	.	.	.	.
.	8F\	8.gL 8.f/	.	8.g/	na
.	8G\J)	.	.	.	.
.	.	16ddJk 16f/	.	16dd\	u-
=20	=20	=20	=20	=20	=20
!	!LO:N:vis=2	!	!	!	!
2C/	8C\L	4dd 4f/	.	4dd\	-rwi-
.	(>8E\	.	.	.	.
.	8G\	8cc 8e/	.	8cc\	-sko.
.	8c\J)	8r	.	8r	.
*v	*v	*	*	*	*
=21	=21	=21	=21	=21
8A 8AA\	8r	.	4cc\	Kie-
8r	8cc 8a 8e/	.	.	.
8E 8EE/	8r	.	8.bn\	-dy
8r	8ee 8g#X 8e/	.	.	.
.	.	.	16ee\	z_wie-
!!LO:PB:g=original
=22	=22	=22	=22	=22
8A 8AA\	8r	.	4cc\	-czo-
8r	8cc 8a 8e/	.	.	.
8A 8AA\	8r	.	8a/	-ra
8r	8a 8e 8c/	.	8r	.
=23	=23	=23	=23	=23
8E 8EE/	8r	.	4bn\	dzwon-
8r	8g#X 8e 8d 8Bn/	.	.	.
8E 8EE/	8r	.	8.b\	-kiem
8r	8g# 8e 8d 8B/	.	.	.
.	.	.	16cc\	po-
=24	=24	=24	=24	=24
8A 8AA\	8r	.	4a/	-gru-
8r	8a 8e 8c/	.	.	.
8A 8AA\	8r	.	8ee\	-cha,
8r	8a 8e 8c/	.	8r	.
=25	=25	=25	=25	=25
4E 4EE/	4r	.	4bn\	din
4r	4g#X 4e 4d 4Bn/	.	4ee\	din
=26	=26	=26	=26	=26
4E 4EE/	4r	.	4a/	din
4r	4a 4e 4c/	.	4ee\	din
!!LO:LB:g=original
=27	=27	=27	=27	=27
8E 8EE/	8r	.	4bn\	To
8r	8g#X 8e 8d 8Bn/	.	.	.
.	.	.	(8qdd/	.
8E 8EE/	8r	.	8.cc\)	je-
8r	8g# 8e 8d 8B/	.	.	.
.	.	.	16b\	-go
=28	=28	=28	=28	=28
8A 8AA\	8r	.	4a/	proś-
8r	8a 8e 8cL/	.	.	.
8A 8AA\	8e 8cJ/	.	8e/	-by
8r	8r	.	8r	.
=29	=29	=29	=29	=29
!	!	!LO:DY:rj	!	!
4D 4DD/	4ff 4a 4f/	f	4ff\	ska-
8FL 8FF/	8aL 8f/	.	8a/	-ła
8GJ 8GG/	8bnJ 8f 8d/	.	8bn\	wy-
=30	=30	=30	=30	=30
*^	*	*	*	*
4C/	(>16C\LL	4dd 4g 4f/	.	4dd\	-słu-
.	16F\	.	.	.	.
.	16G\	.	.	.	.
.	16Bn\JJ	.	.	.	.
8ryy	8c 8C\)	16cc 16g 16e/	.	8cc\	-cha
.	.	8qdd/	.	.	.
.	.	(16cc\LL	.	.	.
8r	8ryy	16bn\	.	8r	.
.	.	16cc\JJ)	.	.	.
*v	*v	*	*	*	*
=31	=31	=31	=31	=31
4f 4Bn\	4dd\	.	4dd\	Po-
.	(8qff#X (8qf#X/	.	.	.
4G\	4gg 4g\))	.	8.g/	-nie-
.	.	.	16dd\	-sie
!!LO:LB:g=original
=32	=32	=32	=32	=32
4e 4c\	4ee\	.	4ee\	od-
.	(8qff#X (>8qf#X/	.	.	.
!	!LO:S:s=2:note:problem=note-level slur	!	!	!
4G\	4gg 4g\))	.	8cc\L	-dźwięk
.	.	.	8bn\J	.
=33	=33	=33	=33	=33
!	!	!LO:DY:rj	!	!
8F 8FF\	8r	p	4a/	do
8r	8a 8f/	.	.	.
8FL 8FF\	8r	.	8a/	dru-
8GJ 8GG\	8bn 8f 8d/	.	8bn/	-gich
=34	=34	=34	=34	=34
*^	*	*	*	*
4C/	(>16C\LL	4dd 4g 4f/	.	4dd\	szczy-
.	16F\	.	.	.	.
.	16G\	.	.	.	.
.	16Bn\JJ	.	.	.	.
8ryy	8c 8C\)	8cc 8g 8e/	.	8cc\	-tu.
8r	8ryy	8r	.	8r	.
.	.	.	f	.	.
*v	*v	*	*	*	*
=35	=35	=35	=35	=35
4G 4D 4GG/	(32dd/LLL	.	2r	.
.	32cc/	.	.	.
.	32bn/	.	.	.
.	32a/JJ	.	.	.
.	8g/J)	.	.	.
!	!	!LO:DY:rj	!	!
4r	(32ddd\LLL	p	.	.
.	32ccc\	.	.	.
.	32bbn\	.	.	.
.	32aa\JJ	.	.	.
.	8gg\J)	.	.	.
!!LO:LB:g=original
=36	=36	=36	=36	=36
!	!	!LO:DY:t=for	!	!
4G 4E 4C\	(32gg\LLL	f	2r	.
.	32ff\	.	.	.
.	32ee\	.	.	.
.	32dd\JJ	.	.	.
.	8cc\J)	.	.	.
!	!	!LO:DY:t=p.	!	!
4r	(32ggg\LLL	p	.	.
.	32fff\	.	.	.
.	32eee\	.	.	.
.	32ddd\JJ	.	.	.
.	8ccc\J)	.	.	.
=37	=37	=37	=37	=37
!	!	!LO:DY:rj	!	!
8D 8DD/	8ffL 8a 8f/	f	2r	.
8r	8ffJ 8a 8f/	.	.	.
8G 8GG/	8r	.	.	.
8r	8bn 8f 8d/	.	.	.
=38	=38	=38	=38	=38
8c 8C\	8cc 8e/	.	2r	.
8r	(16bn/LL	.	.	.
.	16cc/JJ	.	.	.
4r	16dd/LL	.	.	.
.	16cc/	.	.	.
.	16b-X/	.	.	.
!	!LO:TX:b:t=V&colon; S&colon;	!	!	!
.	16g/JJ)	.	.	.
!!LO:PB:g=original
=39	=39	=39	=39	=39
8F 8FF/	8a/L	p	4a/	Lecz
8r	8aJ 8f 8c/	.	.	.
8F 8FF/	8r	.	8.bn^\	Kie-
8r	8a 8f 8c/	.	.	.
.	.	.	16cc\	-dy
=40	=40	=40	=40	=40
8E 8EE/	8r	.	(8.g/L	z ra-
8r	8cc 8g 8c/	.	.	.
.	.	.	16cc/Jk)	.
8E 8EE/	8r	.	4cc\	-na
8r	8cc 8g 8c/	.	.	.
=41	=41	=41	=41	=41
!LO:TX:t=P:problem=mixed beam	!	!LO:DY:rj	!	!
(>32BB-/LLL	(32dd\LLL	pp	4dd\	za-
32B-\	32b-\	.	.	.
32BB-/	32dd\	.	.	.
32B-\	32b-\	.	.	.
32BB-/	32dd\	.	.	.
32B-\	32b-\	.	.	.
32BB-/	32dd\	.	.	.
32B-\JJJ	32b-\JJJ	.	.	.
!LO:TX:t=P:problem=mixed beam	!	!	!	!
32FF/LLL	32cc/LLL	.	8cc\	-brzę-
32F\	32a/	.	.	.
32FF/	32cc/	.	.	.
32F\JJJ	32a/JJJ	.	.	.
!LO:TX:t=P:problem=mixed beam	!	!	!	!
32GG/LLL	32b-/LLL	.	8b-\	-knie
32G\	32g/	.	.	.
32GG/	32b-/	.	.	.
32G\JJJ)	32g/JJJ)	.	.	.
=42	=42	=42	=42	=42
!LO:TX:t=P:problem=mixed beam	!	!	!	!
(>32FF/LLL	(32cc/LLL	.	4cc\	dzwo-
32F\	32a/	.	.	.
32FF/	32cc/	.	.	.
32F\	32a/	.	.	.
32FF/	32cc/	.	.	.
32F\	32a/	.	.	.
32FF/	32cc/	.	.	.
32F\JJJ	32a/JJJ	.	.	.
8F 8FF/)	8a 8f/)	.	8a/	-nek,
8r	8r	.	8r	.
=43	=43	=43	=43	=43
8B- 8BB-\	4r	mf	4g/	To
8r	.	.	.	.
4r	8dd-X 8g 8f/	.	8g/	już
.	8r	.	8dd-X\	nie
!!LO:LB:g=original
=44	=44	=44	=44	=44
8c 8C\	4r	.	4cc\	go-
8r	.	.	.	.
4r	8cc 8a 8f/	.	4a/	-łąb,
.	8r	.	.	.
=45	=45	=45	=45	=45
8C 8CC/	4r	.	(8cc\L	chy-
8r	.	.	8dd\J)	.
4r	8cc 8g 8e/	.	8.cc\	-ba
.	8r	.	.	.
.	.	.	16b-\	sko-
=46	=46	=46	=46	=46
4D 4DD/	4r	.	4b-\	-wro-
4r	4a 4f 4d/	.	4a/	-nek
=47	=47	=47	=47	=47
8C#X 8CC#X/	8r	.	(16a\LL	Le-
.	.	.	16bn\	.
8r	8a 8g 8e/	.	16cc#X\	.
.	.	.	16dd\JJ)	.
8C# 8CC#/	8r	.	8.ee\	-ci
8r	8ee 8a 8g\	.	.	.
.	.	.	16a/	Ku
=48	=48	=48	=48	=48
8D 8DD/	8r	.	4ff\	Nie-
8r	8ff 8a 8f\	.	.	.
8B- 8BB-\	8r	.	4dd\	-bu
8r	8dd 8b- 8f/	.	.	.
!!LO:LB:g=original
=49	=49	=49	=49	=49
*	*	*	*^	*
8c 8C\	8r	.	(16cc/LL	8cc\L	z mo-
.	.	.	16aa/	.	.
8r	8aL 8f/	.	16ff/	8a\J	.
.	.	.	16dd/JJ)	.	.
4C 4CC/	8g 8f/	.	(16cc/LL	8.g\	-dli-
.	.	.	16b-/	.	.
.	8ccJ 8e/	.	16g/JJ)	.	.
.	.	.	16cc/	16cc\	-twą
.	.	f	.	.	.
*	*	*	*v	*v	*
=50	=50	=50	=50	=50
8C 8CC/	8r	.	4cc\	świ-
8CL 8CC/	8eeL 8cc 8b- 8g\	.	.	.
8FJ 8FF/	8ffJ 8cc 8a\	.	8f/	-tu.
8r	8r	.	8r	.
=51	=51	=51	=51	=51
4C 4CC/	(16cc#X\LL	.	2r	.
.	16dd\	.	.	.
.	16dd#X\	.	.	.
.	16ee\JJ	<	.	.
4c 4B- 4G 4C\	16ff\LL	.	.	.
.	16ff#X\	.	.	.
.	16gg\	.	.	.
.	16gg#X\JJ	.	.	.
=52	=52	=52	=52	=52
4C 4CC/	16aa\LL	.	2r	.
.	16bb-\	.	.	.
.	16bbn\	.	.	.
.	16ccc\JJ	[ >	.	.
4c 4B- 4G 4C\	8.ddd-X\L)	.	.	.
.	16ee\Jk	]]	.	.
=53	=53	=53	=53	=53
4F 4FF/	16ff\LL	.	2r	.
.	(16fff\	.	.	.
.	16eee\	<	.	.
.	16eee-X\JJ	.	.	.
4c 4A 4F\	16ddd\LL	.	.	.
.	16ddd-X\	.	.	.
.	16ccc\	.	.	.
.	16bbn\JJ	[[	.	.
!!LO:LB:g=original
=54	=54	=54	=54	=54
4F 4FF/	16bb-X\LL	>	2r	.
.	16aa\	.	.	.
.	16aa-X\	.	.	.
.	16gg\JJ	.	.	.
4c 4A 4F\	8.gg-X\L)	.	.	.
.	16ff\Jk	]	.	.
=55	=55	=55	=55	=55
!LO:TX:t=P:problem=mixed beam	!	!	!	!
8BB-/L	(16dd\LL	.	2r	.
.	16ff\	.	.	.
8B-\J	16bb-\	.	.	.
.	16ddd\JJ)	.	.	.
!LO:TX:t=P:problem=mixed beam	!	!	!	!
8AA/L	(16cc\LL	.	.	.
.	16ff\	.	.	.
8A\J	16aa\	.	.	.
.	16ccc\JJ)	.	.	.
=56	=56	=56	=56	=56
!LO:TX:t=P:problem=mixed beam	!	!	!	!
8GG/L	(16b-\LL	.	2r	.
.	16dd\	.	.	.
8G\J	16gg\	.	.	.
.	16bb-\JJ)	.	.	.
8C\L	(16cc\LL	.	.	.
.	16ee\	.	.	.
8c\J	16gg\	.	.	.
.	16ccc\JJ)	.	.	.
=57	=57	=57	=57	=57
16cKL 16A 16F\	16ff\KL	.	2r	.
16r	16r	.	.	.
8cJ 8B- 8E 8C\	8cccT\J	.	.	.
16cKL 16A 16F\	16fff\KL	.	.	.
16r	16r	.	.	.
8cJ 8B- 8E 8C\	8cccT\J	.	.	.
=58	=58	=58	=58	=58
4c 4A 4F\	4ff\	.	2r	.
4r	4r	.	.	.
==	==	==	==	==
*-	*-	*-	*-	*-
!!!system-decoration: <s1>{(s2,s3)}
!!!RDF**kern: > = above
!!!RDF**kern: < = below
!!!RDF**kern: | = vertical stroke
!!!ENC: Andrzej Kubiczek
!!!END: 2021-06-05
!!!ENC: Katarzyna Serwa
!!!END: 2021-05-19
